svgs/duotone/hourglass.svg

<svg xmlns="http://www.w3.org/2000/svg" viewBox="0 0 384 512"><!--! Font Awesome Pro 6.4.2 by @fontawesome - https://fontawesome.com License - https://fontawesome.com/license (Commercial License) Copyright 2023 Fonticons, Inc. --><path class="fa-primary" style="fill:var(--fa-primary-color,inherit);opacity:var(--fa-primary-opacity,1);" d="M32 0C14.3 0 0 14.3 0 32S14.3 64 32 64H352c17.7 0 32-14.3 32-32s-14.3-32-32-32H32zm0 448c-17.7 0-32 14.3-32 32s14.3 32 32 32H352c17.7 0 32-14.3 32-32s-14.3-32-32-32H32z"/><path class="fa-secondary" style="fill:var(--fa-secondary-color,inherit);opacity:var(--fa-secondary-opacity,.4);" d="M32 75V64H96V75c0 25.5 10.1 49.9 28.1 67.9L192 210.7l67.9-67.9c18-18 28.1-42.4 28.1-67.9V64h64V75c0 42.4-16.9 83.1-46.9 113.1L237.3 256l67.9 67.9c30 30 46.9 70.7 46.9 113.1v11H288V437c0-25.5-10.1-49.9-28.1-67.9L192 301.3l-67.9 67.9c-18 18-28.1 42.4-28.1 67.9v11H32V437c0-42.4 16.9-83.1 46.9-113.1L146.7 256 78.9 188.1l22.6-22.6L78.9 188.1C48.9 158.1 32 117.4 32 75z"/></svg>

<svg xmlns="http://www.w3.org/2000/svg" viewBox="0 0 384 512"><!--! Font Awesome Pro 6.1.1 by @fontawesome - https://fontawesome.com License - https://fontawesome.com/license (Commercial License) Copyright 2022 Fonticons, Inc. --><defs><style>.fa-secondary{opacity:.4}</style></defs><path class="fa-primary" d="M32 0H352C369.7 0 384 14.33 384 32C384 49.67 369.7 64 352 64H32C14.33 64 0 49.67 0 32C0 14.33 14.33 0 32 0zM32 448H96V437C96 418 101.6 399.6 111.1 384H272C282.4 399.6 288 418 288 437V448H352C369.7 448 384 462.3 384 480C384 497.7 369.7 512 352 512H32C14.33 512 0 497.7 0 480C0 462.3 14.33 448 32 448zM192 210.7L124.1 142.9C119.5 138.3 115.5 133.3 111.1 128H272C268.5 133.3 264.5 138.3 259.9 142.9L192 210.7z"/><path class="fa-secondary" d="M78.86 323.9L146.7 256L78.86 188.1C48.86 158.1 32 117.4 32 74.98V64H96V74.98C96 100.4 106.1 124.9 124.1 142.9L192 210.7L259.9 142.9C277.9 124.9 288 100.4 288 74.98V64H352V74.98C352 117.4 335.1 158.1 305.1 188.1L237.3 256L305.1 323.9C335.1 353.9 352 394.6 352 437V448H288V437C288 411.6 277.9 387.1 259.9 369.1L192 301.3L124.1 369.1C106.1 387.1 96 411.6 96 437V448H32V437C32 394.6 48.86 353.9 78.86 323.9V323.9zM101.5 346.5L78.86 323.9z"/></svg>
